svg/shoe_cleat.svg

<svg xmlns="http://www.w3.org/2000/svg" viewBox="0 0 24 24"><path d="M21 8h-.7l-.05-.03c-2.11-.13-3.87-.8-4.72-1.74L14 7c-.05.1-.11.19-.16.28.71.61 1.16 1.37 1.16 2.22 0 .33-.09.64-.21.95l-1.87-1.87c-.22.25-.45.49-.7.71l2.03 2.03c-.21.25-.45.47-.75.68l-2.07-2.09c-.29.2-.58.37-.88.54l2.03 2.05c-.33.13-.69.24-1.08.32l-1.91-1.91c-.34.14-.68.27-1.03.38l1.7 1.71H10c-1.5 0-2.8-.46-3.72-1.18-.82.13-1.6.18-2.28.18-2 0-2 3-2 3 0 1.11.89 2 2 2v1c0 .55.45 1 1 1s1-.45 1-1v-1h1v1c0 .55.45 1 1 1s1-.45 1-1v-1h1v1c0 .55.45 1 1 1s1-.45 1-1v-1h3v1c0 .55.45 1 1 1s1-.45 1-1v-1h1v1c0 .55.45 1 1 1s1-.45 1-1v-1h1s1 0 1-4.5C22 9 21 8 21 8"/></svg>

<?xml version="1.0" encoding="UTF-8"?><!DOCTYPE svg PUBLIC "-//W3C//DTD SVG 1.1//EN" "http://www.w3.org/Graphics/SVG/1.1/DTD/svg11.dtd"><svg xmlns="http://www.w3.org/2000/svg" xmlns:xlink="http://www.w3.org/1999/xlink" version="1.1" id="mdi-shoe-cleat" width="24" height="24" viewBox="0 0 24 24"><path d="M21 8C20.76 8 20.53 8 20.3 8L20.25 7.97C18.14 7.84 16.38 7.17 15.53 6.23L14 7C13.95 7.1 13.89 7.19 13.84 7.28C14.55 7.89 15 8.65 15 9.5C15 9.83 14.91 10.14 14.79 10.45L12.92 8.58C12.7 8.83 12.47 9.07 12.22 9.29L14.25 11.32C14.04 11.57 13.8 11.79 13.5 12L11.43 9.91C11.14 10.11 10.85 10.28 10.55 10.45L12.58 12.5C12.25 12.63 11.89 12.74 11.5 12.82L9.59 10.91C9.25 11.05 8.91 11.18 8.56 11.29L10.26 13C10.17 13 10.09 13 10 13C8.5 13 7.2 12.54 6.28 11.82C5.46 11.95 4.68 12 4 12C2 12 2 15 2 15V15C2 16.11 2.89 17 4 17H4V18C4 18.55 4.45 19 5 19S6 18.55 6 18V17H7V18C7 18.55 7.45 19 8 19S9 18.55 9 18V17H10V18C10 18.55 10.45 19 11 19S12 18.55 12 18V17H15V18C15 18.55 15.45 19 16 19S17 18.55 17 18V17H18V18C18 18.55 18.45 19 19 19S20 18.55 20 18V17H21C21 17 22 17 22 12.5C22 9 21 8 21 8Z" /></svg>
